resources/icons/16px/forward-ten.svg

<svg width="16" height="16" viewBox="0 0 16 16" fill="none" xmlns="http://www.w3.org/2000/svg">
<path d="M8.00216 16C7.03052 16 6.11971 15.8148 5.26972 15.4443C4.41973 15.0738 3.6794 14.5707 3.04872 13.935C2.41804 13.2993 1.91892 12.5538 1.55134 11.6985C1.18378 10.8432 1 9.92581 1 8.94646C1 7.9671 1.18378 7.05079 1.55134 6.19753C1.91892 5.34428 2.41977 4.5998 3.05392 3.96409C3.68807 3.32839 4.42966 2.8253 5.27868 2.45481C6.12768 2.08432 7.03826 1.89908 8.01041 1.89908H8.121L7.65061 1.42494C7.48926 1.26231 7.40819 1.06791 7.40739 0.841735C7.40659 0.615564 7.48419 0.421167 7.6402 0.258546C7.80154 0.0889139 7.99747 0.00275379 8.228 6.61403e-05C8.45853 -0.0026339 8.65447 0.0773335 8.81582 0.239967L10.7455 2.18502C10.9416 2.3852 11.0396 2.61874 11.0396 2.88564C11.0396 3.15255 10.9416 3.38482 10.7455 3.58245L8.81582 5.5275C8.65447 5.69014 8.45853 5.77011 8.228 5.76742C7.99747 5.76472 7.80154 5.68206 7.6402 5.51944C7.48419 5.3568 7.40486 5.16415 7.40219 4.94149C7.39951 4.71881 7.47885 4.52616 7.6402 4.36354L8.13142 3.86839H8.01041C6.60748 3.86839 5.41398 4.36089 4.4299 5.34588C3.44582 6.33086 2.95378 7.53037 2.95378 8.94439C2.95378 10.3584 3.44338 11.5596 4.42259 12.5481C5.40179 13.5365 6.59426 14.0307 8 14.0307C9.40574 14.0307 10.5982 13.5382 11.5774 12.5532C12.5566 11.5683 13.0462 10.3688 13.0462 8.95478C13.0462 8.68122 13.1412 8.44873 13.3311 8.2573C13.521 8.06585 13.7517 7.97013 14.0231 7.97013C14.2945 7.97013 14.5252 8.06585 14.7151 8.2573C14.905 8.44873 15 8.68122 15 8.95478C15 9.9257 14.8162 10.8395 14.4486 11.6963C14.0811 12.553 13.582 13.2993 12.9513 13.935C12.3206 14.5707 11.581 15.0738 10.7324 15.4443C9.88387 15.8148 8.97378 16 8.00216 16Z" fill="black" />
<path fill-rule="evenodd" clip-rule="evenodd" d="M10 8H9V11H10V8ZM9 7C8.44772 7 8 7.44772 8 8V11C8 11.5523 8.44772 12 9 12H10C10.5523 12 11 11.5523 11 11V8C11 7.44772 10.5523 7 10 7H9Z" fill="black" />
<path d="M5.5 7C5.22386 7 5 7.22386 5 7.5C5 7.77614 5.22386 8 5.5 8H6V11.5C6 11.7761 6.22386 12 6.5 12C6.77614 12 7 11.7761 7 11.5V8C7 7.44772 6.55228 7 6 7H5.5Z" fill="black" />
</svg>

<svg xmlns="http://www.w3.org/2000/svg" viewBox="0 0 16 16">
  <path d="M8.002 16a6.8 6.8 0 0 1-2.732-.556 7.1 7.1 0 0 1-2.221-1.509 7.2 7.2 0 0 1-1.498-2.237A6.9 6.9 0 0 1 1 8.947q0-1.468.551-2.748a7.1 7.1 0 0 1 1.503-2.234 7.2 7.2 0 0 1 2.225-1.51A6.8 6.8 0 0 1 8.01 1.9h.111l-.47-.474a.8.8 0 0 1-.244-.583q0-.339.233-.583A.8.8 0 0 1 8.228 0a.78.78 0 0 1 .588.24l1.93 1.945a.97.97 0 0 1 .294.7q0 .402-.294.697l-1.93 1.946a.78.78 0 0 1-.588.24.8.8 0 0 1-.588-.249.82.82 0 0 1-.238-.578.78.78 0 0 1 .238-.577l.491-.496h-.12q-2.105 0-3.581 1.478T2.954 8.944t1.469 3.604Q5.89 14.031 8 14.031t3.577-1.478q1.47-1.477 1.47-3.598 0-.41.284-.698a.94.94 0 0 1 .692-.287q.407 0 .692.287t.285.698q0 1.455-.551 2.741a7.1 7.1 0 0 1-1.498 2.239 7.1 7.1 0 0 1-2.219 1.51 6.75 6.75 0 0 1-2.73.555"/>
  <path d="M10 8H9v3h1zM9 7a1 1 0 0 0-1 1v3a1 1 0 0 0 1 1h1a1 1 0 0 0 1-1V8a1 1 0 0 0-1-1zM5.5 7a.5.5 0 0 0 0 1H6v3.5a.5.5 0 0 0 1 0V8a1 1 0 0 0-1-1z"/>
</svg>
